images/categories/category-4.svg

<svg width="160" height="160" viewBox="0 0 160 160" fill="none" xmlns="http://www.w3.org/2000/svg">
<path d="M124.967 51.0741C125.719 52.5151 126.176 54.1541 126.176 55.8921V76.9941C126.176 81.6101 123.084 85.5211 118.93 86.8941C117.605 90.8811 115.152 94.7481 110.879 97.3261C102.203 102.557 79.755 102.163 79.681 102.163C79.603 102.163 57.168 102.558 48.492 97.3261C44.276 94.7811 41.784 90.9791 40.45 87.0471C36.032 85.8381 32.694 81.7961 32.694 76.9941V55.8931C32.694 54.2051 33.121 52.6111 33.833 51.2001C30.17 52.1091 26 53.9181 26 57.4341C26 63.6771 26 83.1211 26 87.4171C26 97.6681 37.839 111.85 79.657 111.85C121.477 111.85 133.314 97.6681 133.314 87.4171C133.314 83.1211 133.314 63.6771 133.314 57.4341C133.313 53.7501 128.738 51.9401 124.967 51.0741Z" fill="#363636"/>
<path d="M46.561 85.4591H112.084C117.648 85.4591 122.158 80.9461 122.158 75.3821V56.9351C122.158 51.3721 117.648 46.8601 112.084 46.8601H46.561C40.997 46.8601 36.486 51.3711 36.486 56.9351V75.3821C36.486 80.9461 40.997 85.4591 46.561 85.4591ZM109.695 56.4681C110.562 56.4681 111.264 57.1711 111.264 58.0381C111.264 58.9041 110.562 59.6071 109.695 59.6071C108.828 59.6071 108.127 58.9041 108.127 58.0381C108.127 57.1701 108.828 56.4681 109.695 56.4681ZM109.695 60.5071C110.562 60.5071 111.264 61.2101 111.264 62.0751C111.264 62.9421 110.562 63.6441 109.695 63.6441C108.828 63.6441 108.127 62.9421 108.127 62.0751C108.127 61.2101 108.828 60.5071 109.695 60.5071ZM109.695 64.5461C110.562 64.5461 111.264 65.2481 111.264 66.1151C111.264 66.9811 110.562 67.6841 109.695 67.6841C108.828 67.6841 108.127 66.9811 108.127 66.1151C108.127 65.2481 108.828 64.5461 109.695 64.5461ZM109.695 68.3731C110.562 68.3731 111.264 69.0771 111.264 69.9421C111.264 70.8091 110.562 71.5101 109.695 71.5101C108.828 71.5101 108.127 70.8091 108.127 69.9421C108.127 69.0761 108.828 68.3731 109.695 68.3731ZM109.695 72.4121C110.562 72.4121 111.264 73.1141 111.264 73.9811C111.264 74.8461 110.562 75.5491 109.695 75.5491C108.828 75.5491 108.127 74.8451 108.127 73.9811C108.127 73.1141 108.828 72.4121 109.695 72.4121ZM105.656 56.4681C106.523 56.4681 107.224 57.1711 107.224 58.0381C107.224 58.9041 106.523 59.6071 105.656 59.6071C104.791 59.6071 104.088 58.9041 104.088 58.0381C104.088 57.1701 104.791 56.4681 105.656 56.4681ZM105.656 72.4121C106.523 72.4121 107.224 73.1141 107.224 73.9811C107.224 74.8461 106.523 75.5491 105.656 75.5491C104.791 75.5491 104.088 74.8451 104.088 73.9811C104.088 73.1141 104.791 72.4121 105.656 72.4121ZM101.619 56.4681C102.484 56.4681 103.187 57.1711 103.187 58.0381C103.187 58.9041 102.484 59.6071 101.619 59.6071C100.752 59.6071 100.05 58.9041 100.05 58.0381C100.05 57.1701 100.752 56.4681 101.619 56.4681ZM101.619 60.5071C102.484 60.5071 103.187 61.2101 103.187 62.0751C103.187 62.9421 102.484 63.6441 101.619 63.6441C100.752 63.6441 100.05 62.9421 100.05 62.0751C100.05 61.2101 100.752 60.5071 101.619 60.5071ZM101.619 64.5461C102.484 64.5461 103.187 65.2481 103.187 66.1151C103.187 66.9811 102.484 67.6841 101.619 67.6841C100.752 67.6841 100.05 66.9811 100.05 66.1151C100.05 65.2481 100.752 64.5461 101.619 64.5461ZM101.619 68.3731C102.484 68.3731 103.187 69.0771 103.187 69.9421C103.187 70.8091 102.484 71.5101 101.619 71.5101C100.752 71.5101 100.05 70.8091 100.05 69.9421C100.05 69.0761 100.752 68.3731 101.619 68.3731ZM101.619 72.4121C102.484 72.4121 103.187 73.1141 103.187 73.9811C103.187 74.8461 102.484 75.5491 101.619 75.5491C100.752 75.5491 100.05 74.8451 100.05 73.9811C100.05 73.1141 100.752 72.4121 101.619 72.4121ZM93.965 56.4681C94.832 56.4681 95.533 57.1711 95.533 58.0381C95.533 58.9041 94.832 59.6071 93.965 59.6071C93.098 59.6071 92.397 58.9041 92.397 58.0381C92.396 57.1701 93.1 56.4681 93.965 56.4681ZM93.965 64.5461C94.832 64.5461 95.533 65.2481 95.533 66.1151C95.533 66.9811 94.832 67.6841 93.965 67.6841C93.098 67.6841 92.397 66.9811 92.397 66.1151C92.396 65.2481 93.1 64.5461 93.965 64.5461ZM93.965 68.4271C94.832 68.4271 95.533 69.1281 95.533 69.9951C95.533 70.8601 94.832 71.5641 93.965 71.5641C93.098 71.5641 92.397 70.8601 92.397 69.9951C92.396 69.1281 93.1 68.4271 93.965 68.4271ZM93.965 72.4121C94.832 72.4121 95.533 73.1141 95.533 73.9811C95.533 74.8461 94.832 75.5491 93.965 75.5491C93.098 75.5491 92.397 74.8451 92.397 73.9811C92.396 73.1141 93.1 72.4121 93.965 72.4121ZM89.926 56.4681C90.793 56.4681 91.496 57.1711 91.496 58.0381C91.496 58.9041 90.793 59.6071 89.926 59.6071C89.061 59.6071 88.357 58.9041 88.357 58.0381C88.356 57.1701 89.061 56.4681 89.926 56.4681ZM89.926 64.5461C90.793 64.5461 91.496 65.2481 91.496 66.1151C91.496 66.9811 90.793 67.6841 89.926 67.6841C89.061 67.6841 88.357 66.9811 88.357 66.1151C88.356 65.2481 89.061 64.5461 89.926 64.5461ZM89.926 72.4121C90.793 72.4121 91.496 73.1141 91.496 73.9811C91.496 74.8461 90.793 75.5491 89.926 75.5491C89.061 75.5491 88.357 74.8451 88.357 73.9811C88.356 73.1141 89.061 72.4121 89.926 72.4121ZM85.888 56.4681C86.753 56.4681 87.457 57.1711 87.457 58.0381C87.457 58.9041 86.753 59.6071 85.888 59.6071C85.021 59.6071 84.32 58.9041 84.32 58.0381C84.319 57.1701 85.021 56.4681 85.888 56.4681ZM85.888 60.5071C86.753 60.5071 87.457 61.2101 87.457 62.0751C87.457 62.9421 86.753 63.6441 85.888 63.6441C85.021 63.6441 84.32 62.9421 84.32 62.0751C84.319 61.2101 85.021 60.5071 85.888 60.5071ZM85.888 64.5461C86.753 64.5461 87.457 65.2481 87.457 66.1151C87.457 66.9811 86.753 67.6841 85.888 67.6841C85.021 67.6841 84.32 66.9811 84.32 66.1151C84.319 65.2481 85.021 64.5461 85.888 64.5461ZM85.888 72.4121C86.753 72.4121 87.457 73.1141 87.457 73.9811C87.457 74.8461 86.753 75.5491 85.888 75.5491C85.021 75.5491 84.32 74.8451 84.32 73.9811C84.319 73.1141 85.021 72.4121 85.888 72.4121ZM77.598 56.4681C78.465 56.4681 79.167 57.1711 79.167 58.0381C79.167 58.9041 78.465 59.6071 77.598 59.6071C76.731 59.6071 76.03 58.9041 76.03 58.0381C76.029 57.1701 76.731 56.4681 77.598 56.4681ZM77.598 60.5071C78.465 60.5071 79.167 61.2101 79.167 62.0751C79.167 62.9421 78.465 63.6441 77.598 63.6441C76.731 63.6441 76.03 62.9421 76.03 62.0751C76.029 61.2101 76.731 60.5071 77.598 60.5071ZM77.598 64.5461C78.465 64.5461 79.167 65.2481 79.167 66.1151C79.167 66.9811 78.465 67.6841 77.598 67.6841C76.731 67.6841 76.03 66.9811 76.03 66.1151C76.029 65.2481 76.731 64.5461 77.598 64.5461ZM77.598 68.4271C78.465 68.4271 79.167 69.1281 79.167 69.9951C79.167 70.8601 78.465 71.5641 77.598 71.5641C76.731 71.5641 76.03 70.8601 76.03 69.9951C76.029 69.1281 76.731 68.4271 77.598 68.4271ZM77.598 72.4121C78.465 72.4121 79.167 73.1141 79.167 73.9811C79.167 74.8461 78.465 75.5491 77.598 75.5491C76.731 75.5491 76.03 74.8451 76.03 73.9811C76.029 73.1141 76.731 72.4121 77.598 72.4121ZM73.559 60.5071C74.426 60.5071 75.127 61.2101 75.127 62.0751C75.127 62.9421 74.426 63.6441 73.559 63.6441C72.692 63.6441 71.99 62.9421 71.99 62.0751C71.99 61.2101 72.691 60.5071 73.559 60.5071ZM65.057 60.2951C65.922 60.2951 66.626 60.9981 66.626 61.8631C66.626 62.7301 65.922 63.4321 65.057 63.4321C64.19 63.4321 63.486 62.7291 63.486 61.8631C63.486 60.9981 64.189 60.2951 65.057 60.2951ZM65.057 64.3331C65.922 64.3331 66.626 65.0361 66.626 65.9031C66.626 66.7691 65.922 67.4731 65.057 67.4731C64.19 67.4731 63.486 66.7691 63.486 65.9031C63.486 65.0361 64.189 64.3331 65.057 64.3331ZM61.018 56.2551C61.883 56.2551 62.586 56.9581 62.586 57.8251C62.586 58.6911 61.882 59.3931 61.018 59.3931C60.151 59.3931 59.449 58.6901 59.449 57.8251C59.449 56.9581 60.15 56.2551 61.018 56.2551ZM61.018 60.2951C61.883 60.2951 62.586 60.9981 62.586 61.8631C62.586 62.7301 61.882 63.4321 61.018 63.4321C60.151 63.4321 59.449 62.7291 59.449 61.8631C59.449 60.9981 60.15 60.2951 61.018 60.2951ZM61.018 64.3331C61.883 64.3331 62.586 65.0361 62.586 65.9031C62.586 66.7691 61.882 67.4731 61.018 67.4731C60.151 67.4731 59.449 66.7691 59.449 65.9031C59.449 65.0361 60.15 64.3331 61.018 64.3331ZM61.018 68.3731C61.883 68.3731 62.586 69.0771 62.586 69.9421C62.586 70.8091 61.882 71.5101 61.018 71.5101C60.151 71.5101 59.449 70.8091 59.449 69.9421C59.449 69.0761 60.15 68.3731 61.018 68.3731ZM56.764 60.2951C57.631 60.2951 58.333 60.9981 58.333 61.8631C58.333 62.7301 57.631 63.4321 56.764 63.4321C55.897 63.4321 55.196 62.7291 55.196 61.8631C55.196 60.9981 55.897 60.2951 56.764 60.2951ZM56.764 64.3331C57.631 64.3331 58.333 65.0361 58.333 65.9031C58.333 66.7691 57.631 67.4731 56.764 67.4731C55.897 67.4731 55.196 66.7691 55.196 65.9031C55.196 65.0361 55.897 64.3331 56.764 64.3331ZM56.764 68.3731C57.631 68.3731 58.333 69.0771 58.333 69.9421C58.333 70.8091 57.631 71.5101 56.764 71.5101C55.897 71.5101 55.196 70.8091 55.196 69.9421C55.196 69.0761 55.897 68.3731 56.764 68.3731ZM56.764 72.4121C57.631 72.4121 58.333 73.1141 58.333 73.9811C58.333 74.8461 57.631 75.5491 56.764 75.5491C55.897 75.5491 55.196 74.8451 55.196 73.9811C55.196 73.1141 55.897 72.4121 56.764 72.4121ZM52.3 56.2551C53.167 56.2551 53.871 56.9581 53.871 57.8251C53.871 58.6911 53.167 59.3931 52.3 59.3931C51.435 59.3931 50.731 58.6901 50.731 57.8251C50.731 56.9581 51.435 56.2551 52.3 56.2551ZM52.3 60.2951C53.167 60.2951 53.871 60.9981 53.871 61.8631C53.871 62.7301 53.167 63.4321 52.3 63.4321C51.435 63.4321 50.731 62.7291 50.731 61.8631C50.731 60.9981 51.435 60.2951 52.3 60.2951ZM52.3 64.3331C53.167 64.3331 53.871 65.0361 53.871 65.9031C53.871 66.7691 53.167 67.4731 52.3 67.4731C51.435 67.4731 50.731 66.7691 50.731 65.9031C50.731 65.0361 51.435 64.3331 52.3 64.3331ZM52.3 68.3731C53.167 68.3731 53.871 69.0771 53.871 69.9421C53.871 70.8091 53.167 71.5101 52.3 71.5101C51.435 71.5101 50.731 70.8091 50.731 69.9421C50.731 69.0761 51.435 68.3731 52.3 68.3731ZM48.263 60.2951C49.128 60.2951 49.832 60.9981 49.832 61.8631C49.832 62.7301 49.128 63.4321 48.263 63.4321C47.396 63.4321 46.694 62.7291 46.694 61.8631C46.694 60.9981 47.396 60.2951 48.263 60.2951ZM48.263 64.3331C49.128 64.3331 49.832 65.0361 49.832 65.9031C49.832 66.7691 49.128 67.4731 48.263 67.4731C47.396 67.4731 46.694 66.7691 46.694 65.9031C46.694 65.0361 47.396 64.3331 48.263 64.3331Z" fill="#363636"/>
</svg>

<svg width="160" height="160" viewBox="0 0 160 160" fill="none" xmlns="http://www.w3.org/2000/svg"><path d="M124.967 51.0741c.752 1.441 1.209 3.08 1.209 4.818v21.102c0 4.616-3.092 8.527-7.246 9.9-1.325 3.987-3.778 7.854-8.051 10.432-8.676 5.2309-31.124 4.8369-31.198 4.8369-.078 0-22.513.395-31.189-4.8369-4.216-2.545-6.708-6.347-8.042-10.279-4.418-1.209-7.756-5.251-7.756-10.053v-21.101c0-1.688.427-3.282 1.139-4.693-3.663.909-7.833 2.718-7.833 6.234v29.983c0 10.251 11.839 24.4329 53.657 24.4329 41.82 0 53.657-14.1819 53.657-24.4329v-29.983c-.001-3.684-4.576-5.494-8.347-6.36Z" fill="#363636"/><path d="M46.561 85.4591h65.523c5.564 0 10.074-4.513 10.074-10.077v-18.447c0-5.563-4.51-10.075-10.074-10.075H46.561c-5.564 0-10.075 4.511-10.075 10.075v18.447c0 5.564 4.511 10.077 10.075 10.077Zm63.134-28.991c.867 0 1.569.703 1.569 1.57 0 .866-.702 1.569-1.569 1.569s-1.568-.703-1.568-1.569c0-.868.701-1.57 1.568-1.57Zm0 4.039c.867 0 1.569.703 1.569 1.568 0 .867-.702 1.569-1.569 1.569s-1.568-.702-1.568-1.569c0-.865.701-1.568 1.568-1.568Zm0 4.039c.867 0 1.569.702 1.569 1.569 0 .866-.702 1.569-1.569 1.569s-1.568-.703-1.568-1.569c0-.867.701-1.569 1.568-1.569Zm0 3.827c.867 0 1.569.704 1.569 1.569 0 .867-.702 1.568-1.569 1.568s-1.568-.701-1.568-1.568c0-.866.701-1.569 1.568-1.569Zm0 4.039c.867 0 1.569.702 1.569 1.569 0 .865-.702 1.568-1.569 1.568s-1.568-.704-1.568-1.568c0-.867.701-1.569 1.568-1.569Zm-4.039-15.944c.867 0 1.568.703 1.568 1.57 0 .866-.701 1.569-1.568 1.569-.865 0-1.568-.703-1.568-1.569 0-.868.703-1.57 1.568-1.57Zm0 15.944c.867 0 1.568.702 1.568 1.569 0 .865-.701 1.568-1.568 1.568-.865 0-1.568-.704-1.568-1.568 0-.867.703-1.569 1.568-1.569Zm-4.037-15.944c.865 0 1.568.703 1.568 1.57 0 .866-.703 1.569-1.568 1.569-.867 0-1.569-.703-1.569-1.569 0-.868.702-1.57 1.569-1.57Zm0 4.039c.865 0 1.568.703 1.568 1.568 0 .867-.703 1.569-1.568 1.569-.867 0-1.569-.702-1.569-1.569 0-.865.702-1.568 1.569-1.568Zm0 4.039c.865 0 1.568.702 1.568 1.569 0 .866-.703 1.569-1.568 1.569-.867 0-1.569-.703-1.569-1.569 0-.867.702-1.569 1.569-1.569Zm0 3.827c.865 0 1.568.704 1.568 1.569 0 .867-.703 1.568-1.568 1.568-.867 0-1.569-.701-1.569-1.568 0-.866.702-1.569 1.569-1.569Zm0 4.039c.865 0 1.568.702 1.568 1.569 0 .865-.703 1.568-1.568 1.568-.867 0-1.569-.704-1.569-1.568 0-.867.702-1.569 1.569-1.569Zm-7.654-15.944c.867 0 1.568.703 1.568 1.57 0 .866-.701 1.569-1.568 1.569-.867 0-1.568-.703-1.568-1.569-.001-.868.703-1.57 1.568-1.57Zm0 8.078c.867 0 1.568.702 1.568 1.569 0 .866-.701 1.569-1.568 1.569-.867 0-1.568-.703-1.568-1.569-.001-.867.703-1.569 1.568-1.569Zm0 3.881c.867 0 1.568.701 1.568 1.568 0 .865-.701 1.569-1.568 1.569-.867 0-1.568-.704-1.568-1.569-.001-.867.703-1.568 1.568-1.568Zm0 3.985c.867 0 1.568.702 1.568 1.569 0 .865-.701 1.568-1.568 1.568-.867 0-1.568-.704-1.568-1.568-.001-.867.703-1.569 1.568-1.569Zm-4.039-15.944c.867 0 1.57.703 1.57 1.57 0 .866-.703 1.569-1.57 1.569-.865 0-1.569-.703-1.569-1.569-.001-.868.704-1.57 1.569-1.57Zm0 8.078c.867 0 1.57.702 1.57 1.569 0 .866-.703 1.569-1.57 1.569-.865 0-1.569-.703-1.569-1.569-.001-.867.704-1.569 1.569-1.569Zm0 7.866c.867 0 1.57.702 1.57 1.569 0 .865-.703 1.568-1.57 1.568-.865 0-1.569-.704-1.569-1.568-.001-.867.704-1.569 1.569-1.569Zm-4.038-15.944c.865 0 1.569.703 1.569 1.57 0 .866-.704 1.569-1.569 1.569-.867 0-1.568-.703-1.568-1.569-.001-.868.701-1.57 1.568-1.57Zm0 4.039c.865 0 1.569.703 1.569 1.568 0 .867-.704 1.569-1.569 1.569-.867 0-1.568-.702-1.568-1.569-.001-.865.701-1.568 1.568-1.568Zm0 4.039c.865 0 1.569.702 1.569 1.569 0 .866-.704 1.569-1.569 1.569-.867 0-1.568-.703-1.568-1.569-.001-.867.701-1.569 1.568-1.569Zm0 7.866c.865 0 1.569.702 1.569 1.569 0 .865-.704 1.568-1.569 1.568-.867 0-1.568-.704-1.568-1.568-.001-.867.701-1.569 1.568-1.569Zm-8.29-15.944c.867 0 1.569.703 1.569 1.57 0 .866-.702 1.569-1.569 1.569s-1.568-.703-1.568-1.569c-.001-.868.701-1.57 1.568-1.57Zm0 4.039c.867 0 1.569.703 1.569 1.568 0 .867-.702 1.569-1.569 1.569s-1.568-.702-1.568-1.569c-.001-.865.701-1.568 1.568-1.568Zm0 4.039c.867 0 1.569.702 1.569 1.569 0 .866-.702 1.569-1.569 1.569s-1.568-.703-1.568-1.569c-.001-.867.701-1.569 1.568-1.569Zm0 3.881c.867 0 1.569.701 1.569 1.568 0 .865-.702 1.569-1.569 1.569s-1.568-.704-1.568-1.569c-.001-.867.701-1.568 1.568-1.568Zm0 3.985c.867 0 1.569.702 1.569 1.569 0 .865-.702 1.568-1.569 1.568s-1.568-.704-1.568-1.568c-.001-.867.701-1.569 1.568-1.569Zm-4.039-11.905c.867 0 1.568.703 1.568 1.568 0 .867-.701 1.569-1.568 1.569-.867 0-1.569-.702-1.569-1.569 0-.865.701-1.568 1.569-1.568Zm-8.502-.212c.865 0 1.569.703 1.569 1.568 0 .867-.704 1.569-1.569 1.569-.867 0-1.571-.703-1.571-1.569 0-.865.703-1.568 1.571-1.568Zm0 4.038c.865 0 1.569.703 1.569 1.57 0 .866-.704 1.57-1.569 1.57-.867 0-1.571-.704-1.571-1.57 0-.867.703-1.57 1.571-1.57Zm-4.039-8.078c.865 0 1.568.703 1.568 1.57 0 .866-.704 1.568-1.568 1.568-.867 0-1.569-.703-1.569-1.568 0-.867.701-1.57 1.569-1.57Zm0 4.04c.865 0 1.568.703 1.568 1.568 0 .867-.704 1.569-1.568 1.569-.867 0-1.569-.703-1.569-1.569 0-.865.701-1.568 1.569-1.568Zm0 4.038c.865 0 1.568.703 1.568 1.57 0 .866-.704 1.57-1.568 1.57-.867 0-1.569-.704-1.569-1.57 0-.867.701-1.57 1.569-1.57Zm0 4.04c.865 0 1.568.704 1.568 1.569 0 .867-.704 1.568-1.568 1.568-.867 0-1.569-.701-1.569-1.568 0-.866.701-1.569 1.569-1.569Zm-4.254-8.078c.867 0 1.569.703 1.569 1.568 0 .867-.702 1.569-1.569 1.569s-1.568-.703-1.568-1.569c0-.865.701-1.568 1.568-1.568Zm0 4.038c.867 0 1.569.703 1.569 1.57 0 .866-.702 1.57-1.569 1.57s-1.568-.704-1.568-1.57c0-.867.701-1.57 1.568-1.57Zm0 4.04c.867 0 1.569.704 1.569 1.569 0 .867-.702 1.568-1.569 1.568s-1.568-.701-1.568-1.568c0-.866.701-1.569 1.568-1.569Zm0 4.039c.867 0 1.569.702 1.569 1.569 0 .865-.702 1.568-1.569 1.568s-1.568-.704-1.568-1.568c0-.867.701-1.569 1.568-1.569ZM52.3 56.2551c.867 0 1.571.703 1.571 1.57 0 .866-.704 1.568-1.571 1.568-.865 0-1.569-.703-1.569-1.568 0-.867.704-1.57 1.569-1.57Zm0 4.04c.867 0 1.571.703 1.571 1.568 0 .867-.704 1.569-1.571 1.569-.865 0-1.569-.703-1.569-1.569 0-.865.704-1.568 1.569-1.568Zm0 4.038c.867 0 1.571.703 1.571 1.57 0 .866-.704 1.57-1.571 1.57-.865 0-1.569-.704-1.569-1.57 0-.867.704-1.57 1.569-1.57Zm0 4.04c.867 0 1.571.704 1.571 1.569 0 .867-.704 1.568-1.571 1.568-.865 0-1.569-.701-1.569-1.568 0-.866.704-1.569 1.569-1.569Zm-4.037-8.078c.865 0 1.569.703 1.569 1.568 0 .867-.704 1.569-1.569 1.569-.867 0-1.569-.703-1.569-1.569 0-.865.702-1.568 1.569-1.568Zm0 4.038c.865 0 1.569.703 1.569 1.57 0 .866-.704 1.57-1.569 1.57-.867 0-1.569-.704-1.569-1.57 0-.867.702-1.57 1.569-1.57Z" fill="#363636"/></svg>
